!!! OTL: Berkowitz218
!!! Chapter: 1
!!! Section: II
!!! Page: 50
!!! Mode: 
!!! Encoder: DJB
**kern
*staff1
*I"Piano
=1-
*clefC3
*k[f#c#]
*D:
*M3/4
8f#\
4d\
8B/
4g\
=2
8f#\
4d\
8B/
4c#\
=3
8d\
4e\
4f#\
8g#\
=4
4a#\
4b\
4cc#\
=5
8b\
4g\
8e\
4b\
=6
8a\
4f#\
8d\
4a\
=7
8g\
4e\
8d\
8c#\L
8g\J
=8
8.f#\L
16e\Jk
8d\L
8c#\J
4B/
==
*-
